X: 10100
T: Dieter's Squeezing The Box
R: reel
M: 4/4
K: Amixolydian
|:"A"Acec Acec|"G" GBdc BG (3EFG|"A"Acec Acef|"G"gedB GB (3dcB|
"A"Aced cAAA|"G"GBdc BG GG|"A"Acef "G"gedB|"G"GABG "A"A2 A2:|
|:"A"aece aeef|"G"gdBd gd (3.B.c.d|"A"aecA c=c^ce|"G"gedB GA (3.B.c.d|
"A"aecA ceee|"G"gdBd gdBG|"A"Acef "G"gedB|GABG "A"A2 A2:|

